icon-themes/breeze_svg/cmd/32/printersetup.svg

<svg viewBox="0 0 32 32" xmlns="http://www.w3.org/2000/svg"><path d="m7 4v8h-3v12h6v4h12v-1-3h3v-1h-2v-4h-14v4h-4v-10h22v4h1v-5h-3v-8zm1 1h16v7h-16zm2 2v1h12v-1zm0 3v1h12v-1zm12 5v1h4v-1zm-11 9h10v3h-10z" fill="#4d4d4d"/><path d="m27 18c-.5523 0-1 .44772-1 1s.4477 1 1 1 1-.44772 1-1-.4477-1-1-1zm0 4c-.5523 0-1 .44772-1 1s.4477 1 1 1 1-.44772 1-1-.4477-1-1-1zm0 4c-.5523 0-1 .44772-1 1s.4477 1 1 1 1-.44772 1-1-.4477-1-1-1z" fill="#f47750"/></svg>

<svg xmlns="http://www.w3.org/2000/svg" viewBox="0 0 32 32">
 <path 
     style="fill:#4d4d4d" 
     d="M 7 4 L 7 12 L 4 12 L 4 24 L 10 24 L 10 28 L 22 28 L 22 27 L 22 24 L 25 24 L 25 23 L 23 23 L 23 19 L 9 19 L 9 23 L 5 23 L 5 13 L 27 13 L 27 17 L 28 17 L 28 12 L 25 12 L 25 4 L 7 4 z M 8 5 L 24 5 L 24 12 L 8 12 L 8 5 z M 10 7 L 10 8 L 22 8 L 22 7 L 10 7 z M 10 10 L 10 11 L 22 11 L 22 10 L 10 10 z M 22 15 L 22 16 L 26 16 L 26 15 L 22 15 z M 11 24 L 21 24 L 21 27 L 11 27 L 11 24 z "
     />
 <path 
     style="fill:#f47750" 
     d="M 27 18 C 26.4477 18 26 18.44772 26 19 C 26 19.55228 26.4477 20 27 20 C 27.5523 20 28 19.55228 28 19 C 28 18.44772 27.5523 18 27 18 z M 27 22 C 26.4477 22 26 22.44772 26 23 C 26 23.55228 26.4477 24 27 24 C 27.5523 24 28 23.55228 28 23 C 28 22.44772 27.5523 22 27 22 z M 27 26 C 26.4477 26 26 26.44772 26 27 C 26 27.55228 26.4477 28 27 28 C 27.5523 28 28 27.55228 28 27 C 28 26.44772 27.5523 26 27 26 z "
     />
</svg>
